icons/mobile/24/svg/local-network-24.svg

<!-- This Source Code Form is subject to the terms of the Mozilla Public
   - License, v. 2.0. If a copy of the MPL was not distributed with this
   - file, You can obtain one at http://mozilla.org/MPL/2.0/. -->
<svg width="24" height="24" viewBox="0 0 24 24" fill="none" xmlns="http://www.w3.org/2000/svg">
    <path d="M9.5 16.25H7.25V14H9.5V16.25Z" fill="black" />
    <path d="M14.25 16.25H12V14H14.25V16.25Z" fill="black" />
    <path fill-rule="evenodd" clip-rule="evenodd" d="M19 10.5H19.5C20.8802 10.5 22 11.6198 22 13V18C22 19.3802 20.8802 20.5 19.5 20.5H5.5C4.11975 20.5 3 19.3802 3 18V13C3 11.6198 4.11975 10.5 5.5 10.5H17.25V5H19V10.5ZM5.5 12.25C5.08625 12.25 4.75 12.5862 4.75 13V18C4.75 18.4138 5.08625 18.75 5.5 18.75H19.5C19.9138 18.75 20.25 18.4138 20.25 18V13C20.25 12.5862 19.9138 12.25 19.5 12.25H5.5Z" fill="black" />
    <path d="M9.11621 6.5C10.0631 6.50004 10.9401 6.79596 11.665 7.29492L10.4297 8.53027C10.2888 8.671 10.0991 8.7499 9.90039 8.75H8.33203C8.13303 8.75 7.94276 8.67127 7.80176 8.53027L6.56738 7.2959C7.29233 6.79602 8.16934 6.5 9.11621 6.5Z" fill="black" />
    <path d="M9.11621 3C11.0381 3.00005 12.8075 3.64856 14.2324 4.72852L12.9844 5.97656C11.8874 5.2056 10.5551 4.75004 9.11621 4.75C7.67731 4.75 6.345 5.20568 5.24805 5.97559L4 4.72754C5.42496 3.64864 7.19431 3 9.11621 3Z" fill="black" />
</svg>

<!-- This Source Code Form is subject to the terms of the Mozilla Public
   - License, v. 2.0. If a copy of the MPL was not distributed with this
   - file, You can obtain one at http://mozilla.org/MPL/2.0/. -->
<svg xmlns="http://www.w3.org/2000/svg" width="24" height="24" fill="none" viewBox="0 0 24 24">
    <path fill="#000" d="M9.5 16.25H7.25V14H9.5zM14.25 16.25H12V14h2.25z" />
    <path fill="#000" fill-rule="evenodd" d="M19 10.5h.5A2.5 2.5 0 0 1 22 13v5a2.5 2.5 0 0 1-2.5 2.5h-14A2.5 2.5 0 0 1 3 18v-5a2.5 2.5 0 0 1 2.5-2.5h11.75V5H19zM5.5 12.25a.75.75 0 0 0-.75.75v5c0 .414.336.75.75.75h14a.75.75 0 0 0 .75-.75v-5a.75.75 0 0 0-.75-.75z" clip-rule="evenodd" />
    <path fill="#000" d="M9.116 6.5c.947 0 1.824.296 2.549.795L10.43 8.53c-.141.141-.33.22-.53.22H8.332a.75.75 0 0 1-.53-.22L6.567 7.296a4.47 4.47 0 0 1 2.55-.796M9.116 3c1.922 0 3.691.649 5.116 1.729l-1.248 1.248a6.71 6.71 0 0 0-7.736-.001L4 4.728A8.45 8.45 0 0 1 9.116 3" />
</svg>
